database-export-outline.svg

<svg fill="currentColor" viewBox="0 0 24 24"><path d="m17.86 18 1.04 1c-1.4 1.2-3.96 2-6.9 2-4.41 0-8-1.79-8-4V7c0-2.21 3.58-4 8-4 2.95 0 5.5.8 6.9 2l-1.04 1-.36.4C16.65 5.77 14.78 5 12 5 8.13 5 6 6.5 6 7s2.13 2 6 2c1.37 0 2.5-.19 3.42-.46l.96.96H13.5v1.42c-.5.05-1 .08-1.5.08-2.39 0-4.53-.53-6-1.36v2.81C7.3 13.4 9.58 14 12 14c.5 0 1-.03 1.5-.08v.58h2.88l-1 1 .12.11c-1.09.25-2.26.39-3.5.39-2.28 0-4.39-.45-6-1.23V17c0 .5 2.13 2 6 2 2.78 0 4.65-.77 5.5-1.39zm1.06-10.92L17.5 8.5 20 11h-5v2h5l-2.5 2.5 1.42 1.42L23.84 12z"/></svg>

<svg  viewBox="0 0 24 24" fill="currentColor"><path  d="M17.86 18L18.9 19C17.5 20.2 14.94 21 12 21C7.59 21 4 19.21 4 17V7C4 4.79 7.58 3 12 3C14.95 3 17.5 3.8 18.9 5L17.86 6L17.5 6.4C16.65 5.77 14.78 5 12 5C8.13 5 6 6.5 6 7S8.13 9 12 9C13.37 9 14.5 8.81 15.42 8.54L16.38 9.5H13.5V10.92C13 10.97 12.5 11 12 11C9.61 11 7.47 10.47 6 9.64V12.45C7.3 13.4 9.58 14 12 14C12.5 14 13 13.97 13.5 13.92V14.5H16.38L15.38 15.5L15.5 15.61C14.41 15.86 13.24 16 12 16C9.72 16 7.61 15.55 6 14.77V17C6 17.5 8.13 19 12 19C14.78 19 16.65 18.23 17.5 17.61L17.86 18M18.92 7.08L17.5 8.5L20 11H15V13H20L17.5 15.5L18.92 16.92L23.84 12L18.92 7.08Z"/></svg>
